X: 16
T: Farewell to the warriors
N: Derived from ojibwa16.krn
C: Chippewa Songs ~ 1910
O: Red Wing, Minnesota, U.S.A
N: Chippewa Music by Frances Densmore, 1910
Z: transcribed to **kern format by Paul von Hippel and Daniel T. Shanahan
L: 1/8
M: 3/4
Q: 1/4=108
K: Ab clef=treble
%%linebreak <none>
F3/ F/ [I:setbarnb 1]| 
c2>f2 c3/ B/ | 
c4f f | 
[M:2/4]e3f | 
[M:3/4]c2B4 | 
A F2<A2c | 
A> FA4 | 
c3(3B/ c/ B/ A F | 
[M:2/4]!fermata!B> A F3/ E/ | 
!fermata!F4 |]  



